X:82
T: HUSAREN SIND GAR WACKRE TRUPPEN
N: B0569
O: Europa, Mitteleuropa, Deutschland
R: Staende -, Soldaten - Lied
M: 4/4
L: 1/16
K: A
E4 | A3GA3Bc4A4 | B6c2B4
E4 | d3cB3AG2A2B2G2 | c8z4
E4 | A3GA3Bc4A4 | B6c2B4
E4 | d3cB3AG2A2B2G2 | A8z4
E4 | G8E8 | B8E8 | =c8A8 | B8E4
E4 | A3GA3Bc4A4 | e8c4c4 | B8B2d2c2B2 | A8z4

@@@ Tune index: 2300
